X: 54
T: Fang yang
L: 1/8
M: 2/4
K: G
d d/ e/d2 [I:setbarnb 1]| 
e B/ A/G2 | 
A A/ B/ d G | 
A> B A/ G/ E | 
D2G G/ A/ | 
G A E D | 
d2c c/ B/ | 
d G A3/ B/ | 
A/ G/ ED2 |]

@@@ Tune index: 8928
